X:161
T:Trip to Ankerwick THO3.161
O:England;London
M:6/8
L:1/8
Z:vmp. Peter Dunk 2011.from a transcription by Fynn Titford-Mock 2006-9
B:Thompson's Compleat Collection of 200 Favourite Country Dances Vol. III.1765-72
Q:3/8=110
K:A
c/d/|ecA- Aaf|ecA- Aaf|edc edc|BBB B2 c/d/|ecA- Aaf|
ecA- Aaf|edc dcB|AAA A2::C/D/|ECE FDF|GEG{Bc}d2 C/D/|
ECE FDF|GEe c2 C/D/|ECE FDF|GEG{Bc}d2 B|ECE FDF|GEG A2:|

